packages/assets/static/images/icons/file.svg

<svg width="24" height="24" viewBox="0 0 24 24" xmlns="http://www.w3.org/2000/svg">
<path d="M20.2959 7.455L15.0459 2.205C14.9415 2.10039 14.8174 2.0174 14.6808 1.96078C14.5442 1.90416 14.3978 1.87501 14.25 1.875H5.25C4.75272 1.875 4.27581 2.07254 3.92417 2.42417C3.57254 2.77581 3.375 3.25272 3.375 3.75V20.25C3.375 20.7473 3.57254 21.2242 3.92417 21.5758C4.27581 21.9275 4.75272 22.125 5.25 22.125H18.75C19.2473 22.125 19.7242 21.9275 20.0758 21.5758C20.4275 21.2242 20.625 20.7473 20.625 20.25V8.25C20.625 7.95187 20.5066 7.66593 20.2959 7.455ZM15 5.34375L17.1562 7.5H15V5.34375ZM5.625 19.875V4.125H12.75V8.625C12.75 8.92337 12.8685 9.20952 13.0795 9.4205C13.2905 9.63147 13.5766 9.75 13.875 9.75H18.375V19.875H5.625Z"/>
</svg>

<svg viewBox="0 0 24 24" xmlns="http://www.w3.org/2000/svg" aria-hidden="true" fill="currentColor" height="24px" width="24px"><path d="m20.296 7.455-5.25-5.25a1.12 1.12 0 0 0-.796-.33h-9A1.875 1.875 0 0 0 3.375 3.75v16.5a1.875 1.875 0 0 0 1.875 1.875h13.5a1.875 1.875 0 0 0 1.875-1.875v-12a1.12 1.12 0 0 0-.33-.795M15 5.344 17.156 7.5H15zM5.625 19.875V4.125h7.125v4.5a1.125 1.125 0 0 0 1.125 1.125h4.5v10.125z"/></svg>
